X:1
T: Huntmans' Hornpipe
C:
R:Reel
Q: 232
K:C
M:4/4
L:1/8
|:GE|C2 c2 c2 Bc|dB GB c2 cd|ec ec fd fd|ge ce dB GE|
C2 c2 c2 Bc|dB GB c2 Bc|da gf ed cB|E2 E2 E2:|
|:ef|gf ed cB AG|A2 F2 F2 fg|ag fe dc BA|B2 G2 G2 ef|
ge ge fa fa|ge ge fa fa|ge af ed cB|E2 E2 E2:|
